packages/storefront-lwc/src/assets/images/amex-dark.svg

<svg height="60" viewBox="0 0 100 60" width="100" xmlns="http://www.w3.org/2000/svg"><g fill="none" fill-rule="evenodd"><rect fill="#0072ce" height="60" rx="4" width="100"/><path d="m84.4073613 34.6655831h-3.5330409c-.3527415 0-.5870871.0131697-.7844951.1460864-.204502.1309657-.2832695.3253412-.2832695.581907 0 .3050988.1727015.512644.4239258.6023933.204502.0709702.4241704.0917003.7470682.0917003l1.0506412.0280467c1.0601814.0260955 1.7678659.207789 2.1993749.6509261.0785229.0617026.1257344.1309657.1797954.2002287zm0 5.3320338c-.4708928.6865331-1.3884609 1.0345555-2.6306392 1.0345555h-3.7436584v-1.7342585h3.728492c.3698648 0 .6286723-.0485329.784495-.2002286.1350301-.1251125.2292086-.306806.2292086-.5275209 0-.2355919-.0941785-.4226508-.2367918-.5348374-.1406562-.1234053-.3454029-.1794986-.6829779-.1794986-1.8202145-.0617026-4.0910182.0560933-4.0910182-2.5032244 0-1.1730815.7470682-2.4078657 2.7813248-2.4078657h3.8613205v-1.609146h-3.5875911c-1.0826864 0-1.8691384.2585169-2.4261372.6604376v-.6604376h-5.306533c-.8485854 0-1.8446765.2097401-2.3158138.6604376v-.6604376h-9.4760741v.6604376c-.7541623-.5423978-2.0266734-.6604376-2.6140051-.6604376h-6.25052v.6604376c-.5966272-.5760538-1.923444-.6604376-2.7321564-.6604376h-6.9953867l-1.6007907 1.7271858-1.4992735-1.7271858h-10.4496602v11.2849959h10.252986l1.64947-1.7545008 1.5538237 1.7545008 6.319992.0056094v-2.6546763h.6213338c.838556.0129258 1.8275531-.0207302 2.7001112-.3967991v3.0456222h5.2128437v-2.9412399h.2514689c.3209409 0 .3524969.0131697.3524969.3329015v2.6080945h15.8356945c1.0053866 0 2.0562724-.2565659 2.6382224-.7221403v.7221403h5.0230189c1.0452595 0 2.0660571-.1460865 2.8427244-.5202044zm-7.7326702-3.230974c.377448.3894826.5797484.8811525.5797484 1.7135283 0 1.7398678-1.0902696 2.5520012-3.0452694 2.5520012h-3.7757036v-1.7342585h3.7605372c.3676632 0 .6284277-.0485329.7918336-.2002286.1333177-.1251125.228964-.306806.228964-.5275209 0-.2355919-.1034741-.4226508-.2365472-.5348374-.1482395-.1234053-.3527414-.1794986-.6903165-.1794986-1.8128759-.0617026-4.0831904.0560933-4.0831904-2.5032244 0-1.1730815.7392405-2.4078657 2.7715401-2.4078657h3.8862716v1.7213325h-3.5560351c-.3524969 0-.5817054.0131698-.7766673.1460865-.2123298.1309657-.2910973.3253411-.2910973.581907 0 .3050988.1802847.512644.4241704.6023932.204502.0709703.4241704.0917004.7544068.0917004l1.0435473.0280466c1.0523535.0256078 1.7747152.2070575 2.2138074.6504384zm-17.4922585-.4994742c-.2592968.1534029-.5799931.1665727-.9571965.1665727h-2.3549529v-1.8164473h2.3869981c.3451582 0 .6905611.0073165.9251513.1460864.2512243.1309657.4014208.3814344.4014208.7275057s-.1501965.6248306-.4014208.7762825zm1.1707494 1.0065088c.431509.1587685.7842505.443381.9496133.6789728.2737293.3948481.3133577.7633566.3211855 1.4762293v1.6032928h-1.9461935v-1.0118743c0-.4865484.046967-1.2069815-.3133577-1.5830505-.2832695-.289734-.7150231-.3589971-1.4222184-.3589971h-2.0716834v2.9539219h-1.9479059v-8.087678h4.4755603c.9814138 0 1.6961923.0431674 2.3324479.3816783.6117936.3685086.9965802.8733482.9965802 1.795961-.0002446 1.2908775-.8637518 1.949608-1.3740283 2.1515438zm2.4488868-4.3291831h6.4699439v1.6725558h-4.539406v1.470376h4.4285933v1.6501185h-4.4285933v1.609146l4.539406.0073165v1.6781652h-6.4699439zm-13.0790762 3.7323992h-2.5051493v-2.0595995h2.5276543c.6998567 0 1.1856712.2843686 1.1856712.9916319 0 .699459-.4633095 1.0679676-1.2081762 1.0679676zm-4.4359318 3.6197249-2.9762867-3.2943837 2.9762867-3.1897576zm-7.6861925-.9499278h-4.7661683v-1.609146h4.2558918v-1.6501185h-4.2558918v-1.470376h4.8601022l2.1203627 2.356894zm15.4115241-3.7377647c0 2.2466585-1.6812705 2.7105257-3.3757505 2.7105257h-2.4187986v2.7127207h-3.7678757l-2.3869981-2.6773575-2.4806874 2.6773575h-7.6786093v-8.087678h7.7967606l2.3850411 2.651018 2.4657656-2.651018h6.1942575c1.5384127 0 3.2668948.4246018 3.2668948 2.6644316zm-31.3575421-11.9846989-1.3268167-3.2234135-1.3192335 3.2234135zm29.2295962-1.283561c-.2663908.1612073-.5814608.1665727-.9589089.1665727h-2.3549529v-1.795961h2.3869981c.3378197 0 .6903165.0151208.9192805.1458426.2514689.1177959.407047.3685085.407047.7148237 0 .3533877-.1479949.6377564-.3994638.768722zm16.799985 1.283561-1.3414939-3.2234135-1.3341553 3.2234135zm-31.3162014 3.4890031h-1.9872896l-.0073386-6.3326894-2.8109239 6.3326894h-1.7020632l-2.8182624-6.3382987v6.3382987h-3.9427787l-.7448667-1.8035214h-4.0362234l-.7524499 1.8035214h-2.1054409l3.4713967-8.0857269h2.8801512l3.296983 7.6555157v-7.6555157h3.1639099l2.5369499 5.4851929 2.330491-5.4851929h3.227511v8.0857269zm7.9205381 0h-6.4758147v-8.0857269h6.4758147v1.6837745h-4.5372044v1.4574502h4.4283486v1.657435h-4.4283486v1.6147553h4.5372044zm9.1306712-5.9080875c0 1.2891703-.8630179 1.9552172-1.3659558 2.155202.4241703.1609634.786452.445332.9589088.6809239.2737293.4021645.3209409.7614055.3209409 1.4835458v1.5884158h-1.9552445l-.0073386-1.0196786c0-.4865483.0467224-1.1862513-.3060191-1.5752461-.2832695-.2843686-.7150231-.3460713-1.4129228-.3460713h-2.0809789v2.940996h-1.9383658v-8.0857269h4.4586815c.9907094 0 1.7206543.0260956 2.3473697.3872876.6132613.3611921.9809246.8884691.9809246 1.7903518zm3.1022658 5.9080875h-1.9779941v-8.0857269h1.9779941zm22.9472756 0h-2.7470782l-3.674431-6.068807v6.068807h-3.9479157l-.7544069-1.8035214h-4.0269279l-.7319018 1.8035214h-2.2683576c-.9422747 0-2.1352845-.207789-2.8109238-.8943222-.6812656-.6865332-1.0357194-1.6164625-1.0357194-3.0868386 0-1.1991772.2118406-2.2954353 1.0450149-3.1617109.6267154-.6453168 1.6081293-.9428552 2.9439969-.9428552h1.8767216v1.7325513h-1.8373378c-.7074399 0-1.1069037.10487-1.4916903.4789879-.3304811.340462-.5572435.9840716-.5572435 1.8315682 0 .8662756.1727014 1.4908623.5330261 1.89888.2984359.3199757.8407576.4170415 1.3510341.4170415h.8706011l2.7321564-6.358785h2.9046131l3.2820612 7.6479553v-7.6479553h2.9515801l3.4075511 5.6312793v-5.6312793h1.9855773zm-64.030893 1.588172h3.3121494l.7468236-1.795961h1.671975l.7448667 1.795961h6.5169108v-1.3730664l.5817054 1.3789196h3.3830891l.5817054-1.3994058v1.3935526h16.1957745l-.0075832-2.9480686h.3133578c.2194237.0075604.2835141.0278028.2835141.3889948v2.5590738h8.376509v-.6862893c.6756393.3609482 1.7265251.6862893 3.1093597.6862893h3.52399l.7541622-1.795961h1.671975l.7375281 1.795961h6.7908848v-1.7059679l1.0283808 1.7059679h5.4418076v-11.2771917h-5.3855451v1.33185l-.7541622-1.33185h-5.5262015v1.33185l-.6925181-1.33185h-7.4645671c-1.2495169 0-2.3478589.1738892-3.2350942.6584866v-.6584866h-5.1511996v.6584866c-.564582-.4994743-1.3339107-.6584866-2.1893454-.6584866h-18.8193198l-1.2627264 2.9127055-1.2967285-2.9127055h-5.9276222v1.33185l-.6511774-1.33185h-5.0553086l-2.3476144 5.3617876v5.9154041z" fill="#fff"/></g></svg>

<svg xmlns="http://www.w3.org/2000/svg" width="100" height="60" viewBox="0 0 100 60">
  <g fill="none" fill-rule="evenodd">
    <rect width="100" height="60" fill="#0072CE" rx="4"/>
    <path fill="#FFFFFF" d="M84.4073613 34.6655831L80.8743204 34.6655831C80.5215789 34.6655831 80.2872333 34.6787528 80.0898253 34.8116695 79.8853233 34.9426352 79.8065558 35.1370107 79.8065558 35.3935765 79.8065558 35.6986753 79.9792573 35.9062205 80.2304816 35.9959698 80.4349836 36.06694 80.654652 36.0876701 80.9775498 36.0876701L82.028191 36.1157168C83.0883724 36.1418123 83.7960569 36.3235058 84.2275659 36.7666429 84.3060888 36.8283455 84.3533003 36.8976086 84.4073613 36.9668716L84.4073613 34.6655831zM84.4073613 39.9976169C83.9364685 40.68415 83.0189004 41.0321724 81.7767221 41.0321724L78.0330637 41.0321724 78.0330637 39.2979139 81.7615557 39.2979139C82.1314205 39.2979139 82.390228 39.249381 82.5460507 39.0976853 82.6810808 38.9725728 82.7752593 38.7908793 82.7752593 38.5701644 82.7752593 38.3345725 82.6810808 38.1475136 82.5384675 38.035327 82.3978113 37.9119217 82.1930646 37.8558284 81.8554896 37.8558284 80.0352751 37.7941258 77.7644714 37.9119217 77.7644714 35.352604 77.7644714 34.1795225 78.5115396 32.9447383 80.5457962 32.9447383L84.4071167 32.9447383 84.4071167 31.3355923 80.8195256 31.3355923C79.7368392 31.3355923 78.9503872 31.5941092 78.3933884 31.9960299L78.3933884 31.3355923 73.0868554 31.3355923C72.23827 31.3355923 71.2421789 31.5453324 70.7710416 31.9960299L70.7710416 31.3355923 61.2949675 31.3355923 61.2949675 31.9960299C60.5408052 31.4536321 59.2682941 31.3355923 58.6809624 31.3355923L52.4304424 31.3355923 52.4304424 31.9960299C51.8338152 31.4199761 50.5069984 31.3355923 49.698286 31.3355923L42.7028993 31.3355923 41.1021086 33.0627781 39.6028351 31.3355923 29.1531749 31.3355923 29.1531749 42.6205882 39.4061609 42.6205882 41.0556309 40.8660874 42.6094546 42.6205882 48.9294466 42.6261976 48.9294466 39.9715213 49.5507804 39.9715213C50.3893364 39.9844471 51.3783335 39.9507911 52.2508916 39.5747222L52.2508916 42.6203444 57.4637353 42.6203444 57.4637353 39.6791045 57.7152042 39.6791045C58.0361451 39.6791045 58.0677011 39.6922742 58.0677011 40.012006L58.0677011 42.6201005 73.9033956 42.6201005C74.9087822 42.6201005 75.959668 42.3635346 76.541618 41.8979602L76.541618 42.6201005 81.5646369 42.6201005C82.6098964 42.6201005 83.630694 42.474014 84.4073613 42.0998961L84.4073613 39.9976169 84.4073613 39.9976169zM76.6746911 36.7666429C77.0521391 37.1561255 77.2544395 37.6477954 77.2544395 38.4801712 77.2544395 40.220039 76.1641699 41.0321724 74.2091701 41.0321724L70.4334665 41.0321724 70.4334665 39.2979139 74.1940037 39.2979139C74.5616669 39.2979139 74.8224314 39.249381 74.9858373 39.0976853 75.119155 38.9725728 75.2148013 38.7908793 75.2148013 38.5701644 75.2148013 38.3345725 75.1113272 38.1475136 74.9782541 38.035327 74.8300146 37.9119217 74.6255127 37.8558284 74.2879376 37.8558284 72.4750617 37.7941258 70.2047472 37.9119217 70.2047472 35.352604 70.2047472 34.1795225 70.9439877 32.9447383 72.9762873 32.9447383L76.8625589 32.9447383 76.8625589 34.6660708 73.3065238 34.6660708C72.9540269 34.6660708 72.7248184 34.6792406 72.5298565 34.8121573 72.3175267 34.943123 72.2387592 35.1374984 72.2387592 35.3940643 72.2387592 35.6991631 72.4190439 35.9067083 72.6629296 35.9964575 72.8674316 36.0674278 73.0871 36.0881579 73.4173364 36.0881579L74.4608837 36.1162045C75.5132372 36.1418123 76.2355989 36.323262 76.6746911 36.7666429L76.6746911 36.7666429zM59.1824326 36.2671687C58.9231358 36.4205716 58.6024395 36.4337414 58.2252361 36.4337414L55.8702832 36.4337414 55.8702832 34.6172941 58.2572813 34.6172941C58.6024395 34.6172941 58.9478424 34.6246106 59.1824326 34.7633805 59.4336569 34.8943462 59.5838534 35.1448149 59.5838534 35.4908862 59.5838534 35.8369575 59.4336569 36.1157168 59.1824326 36.2671687L59.1824326 36.2671687zM60.353182 37.2736775C60.784691 37.432446 61.1374325 37.7170585 61.3027953 37.9526503 61.5765246 38.3474984 61.616153 38.7160069 61.6239808 39.4288796L61.6239808 41.0321724 59.6777873 41.0321724 59.6777873 40.0202981C59.6777873 39.5337497 59.7247543 38.8133166 59.3644296 38.4372476 59.0811601 38.1475136 58.6494065 38.0782505 57.9422112 38.0782505L55.8705278 38.0782505 55.8705278 41.0321724 53.9226219 41.0321724 53.9226219 32.9444944 58.3981822 32.9444944C59.379596 32.9444944 60.0943745 32.9876618 60.7306301 33.3261727 61.3424237 33.6946813 61.7272103 34.1995209 61.7272103 35.1221337 61.7269657 36.4130112 60.8634585 37.0717417 60.353182 37.2736775L60.353182 37.2736775zM62.8020688 32.9444944L69.2720127 32.9444944 69.2720127 34.6170502 64.7326067 34.6170502 64.7326067 36.0874262 69.1612 36.0874262 69.1612 37.7375447 64.7326067 37.7375447 64.7326067 39.3466907 69.2720127 39.3540072 69.2720127 41.0321724 62.8020688 41.0321724 62.8020688 32.9444944 62.8020688 32.9444944zM49.7229926 36.6768936L47.2178433 36.6768936 47.2178433 34.6172941 49.7454976 34.6172941C50.4453543 34.6172941 50.9311688 34.9016627 50.9311688 35.608926 50.9311688 36.308385 50.4678593 36.6768936 49.7229926 36.6768936L49.7229926 36.6768936zM45.2870608 40.2966185L42.3107741 37.0022348 45.2870608 33.8124772 45.2870608 40.2966185 45.2870608 40.2966185zM37.6008683 39.3466907L32.8347 39.3466907 32.8347 37.7375447 37.0905918 37.7375447 37.0905918 36.0874262 32.8347 36.0874262 32.8347 34.6170502 37.6948022 34.6170502 39.8151649 36.9739442 37.6008683 39.3466907 37.6008683 39.3466907zM53.0123924 35.608926C53.0123924 37.8555845 51.3311219 38.3194517 49.6366419 38.3194517L47.2178433 38.3194517 47.2178433 41.0321724 43.4499676 41.0321724 41.0629695 38.3548149 38.5822821 41.0321724 30.9036728 41.0321724 30.9036728 32.9444944 38.7004334 32.9444944 41.0854745 35.5955124 43.5512401 32.9444944 49.7454976 32.9444944C51.2839103 32.9444944 53.0123924 33.3690962 53.0123924 35.608926L53.0123924 35.608926zM21.6548503 23.6242271L20.3280336 20.4008136 19.0088001 23.6242271 21.6548503 23.6242271zM50.8844465 22.3406661C50.6180557 22.5018734 50.3029857 22.5072388 49.9255376 22.5072388L47.5705847 22.5072388 47.5705847 20.7112778 49.9575828 20.7112778C50.2954025 20.7112778 50.6478993 20.7263986 50.8768633 20.8571204 51.1283322 20.9749163 51.2839103 21.2256289 51.2839103 21.5719441 51.2839103 21.9253318 51.1359154 22.2097005 50.8844465 22.3406661L50.8844465 22.3406661zM67.6844315 23.6242271L66.3429376 20.4008136 65.0087823 23.6242271 67.6844315 23.6242271 67.6844315 23.6242271zM36.3682301 27.1132302L34.3809405 27.1132302 34.3736019 20.7805408 31.562678 27.1132302 29.8606148 27.1132302 27.0423524 20.7749315 27.0423524 27.1132302 23.0995737 27.1132302 22.354707 25.3097088 18.3184836 25.3097088 17.5660337 27.1132302 15.4605928 27.1132302 18.9319895 19.0275033 21.8121407 19.0275033 25.1091237 26.683019 25.1091237 19.0275033 28.2730336 19.0275033 30.8099835 24.5126962 33.1404745 19.0275033 36.3679855 19.0275033 36.3679855 27.1132302 36.3682301 27.1132302zM44.2887682 27.1132302L37.8129535 27.1132302 37.8129535 19.0275033 44.2887682 19.0275033 44.2887682 20.7112778 39.7515638 20.7112778 39.7515638 22.168728 44.1799124 22.168728 44.1799124 23.826163 39.7515638 23.826163 39.7515638 25.4409183 44.2887682 25.4409183 44.2887682 27.1132302 44.2887682 27.1132302zM53.4194394 21.2051427C53.4194394 22.494313 52.5564215 23.1603599 52.0534836 23.3603447 52.4776539 23.5213081 52.8399356 23.8056767 53.0123924 24.0412686 53.2861217 24.4434331 53.3333333 24.8026741 53.3333333 25.5248144L53.3333333 27.1132302 51.3780888 27.1132302 51.3707502 26.0935516C51.3707502 25.6070033 51.4174726 24.9073003 51.0647311 24.5183055 50.7814616 24.2339369 50.349708 24.1722342 49.6518083 24.1722342L47.5708294 24.1722342 47.5708294 27.1132302 45.6324636 27.1132302 45.6324636 19.0275033 50.0911451 19.0275033C51.0818545 19.0275033 51.8117994 19.0535989 52.4385148 19.4147909 53.0517761 19.775983 53.4194394 20.30326 53.4194394 21.2051427L53.4194394 21.2051427zM56.5217052 27.1132302L54.5437111 27.1132302 54.5437111 19.0275033 56.5217052 19.0275033 56.5217052 27.1132302 56.5217052 27.1132302zM79.4689808 27.1132302L76.7219026 27.1132302 73.0474716 21.0444232 73.0474716 27.1132302 69.0995559 27.1132302 68.345149 25.3097088 64.3182211 25.3097088 63.5863193 27.1132302 61.3179617 27.1132302C60.375687 27.1132302 59.1826772 26.9054412 58.5070379 26.218908 57.8257723 25.5323748 57.4713185 24.6024455 57.4713185 23.1320694 57.4713185 21.9328922 57.6831591 20.8366341 58.5163334 19.9703585 59.1430488 19.3250417 60.1244627 19.0275033 61.4603303 19.0275033L63.3370519 19.0275033 63.3370519 20.7600546 61.4997141 20.7600546C60.7922742 20.7600546 60.3928104 20.8649246 60.0080238 21.2390425 59.6775427 21.5795045 59.4507803 22.2231141 59.4507803 23.0706107 59.4507803 23.9368863 59.6234817 24.561473 59.9838064 24.9694907 60.2822423 25.2894664 60.824564 25.3865322 61.3348405 25.3865322L62.2054416 25.3865322 64.937598 19.0277472 67.8422111 19.0277472 71.1242723 26.6757025 71.1242723 19.0277472 74.0758524 19.0277472 77.4834035 24.6590265 77.4834035 19.0277472 79.4689808 19.0277472 79.4689808 27.1132302 79.4689808 27.1132302zM15.4380878 28.7014022L18.7502372 28.7014022 19.4970608 26.9054412 21.1690358 26.9054412 21.9139025 28.7014022 28.4308133 28.7014022 28.4308133 27.3283358 29.0125187 28.7072554 32.3956078 28.7072554 32.9773132 27.3078496 32.9773132 28.7014022 49.1730877 28.7014022 49.1655045 25.7533336 49.4788623 25.7533336C49.698286 25.760894 49.7623764 25.7811364 49.7623764 26.1423284L49.7623764 28.7014022 58.1388854 28.7014022 58.1388854 28.0151129C58.8145247 28.3760611 59.8654105 28.7014022 61.2482451 28.7014022L64.7722351 28.7014022 65.5263973 26.9054412 67.1983723 26.9054412 67.9359004 28.7014022 74.7267852 28.7014022 74.7267852 26.9954343 75.755166 28.7014022 81.1969736 28.7014022 81.1969736 17.4242105 75.8114285 17.4242105 75.8114285 18.7560605 75.0572663 17.4242105 69.5310648 17.4242105 69.5310648 18.7560605 68.8385467 17.4242105 61.3739796 17.4242105C60.1244627 17.4242105 59.0261207 17.5980997 58.1388854 18.0826971L58.1388854 17.4242105 52.9876858 17.4242105 52.9876858 18.0826971C52.4231038 17.5832228 51.6537751 17.4242105 50.7983404 17.4242105L31.9790206 17.4242105 30.7162942 20.336916 29.4195657 17.4242105 23.4919435 17.4242105 23.4919435 18.7560605 22.8407661 17.4242105 17.7854575 17.4242105 15.4378431 22.7859981 15.4378431 28.7014022 15.4380878 28.7014022z"/>
  </g>
</svg>
